X: 1
T:Bisagna
C:La Ciapa Rusa: ten .. 1b
M:6/8
L:1/8
K:G
G2B d2e|c2d e2d|G2B d2e|c2e d3|d3 d3:|
|:d2c B2d|cBA BAG|d2c B2d|cBA G3:|
